X:1
T:Kristallen den fina
R:Visa
Z:Klas Krantz, 2006
O:Skattungbyn, Dalarna
L:1/8
M:6/8
K:Em
E/F/|: "Em"GGG "Am"A>GA | "Em"BBB/c/ "Am"B/A/G/F/E/F/ | "Em"GGG "Am"A>GA |[1 "B7"B3-B2 E/F/ :|[2 "B7"B3-B2e |
"Em"B2B "Am"BBA | "Em"G2B/A/ "B7"GF e | "Em"B2B "Am"BBA | "Em"G2B/A/ "B7"GFE/F/ | "Em"GGG "Am"A>GA |
"B7"B3-B2 E/F/ | "Em"GGG "Am"A>GA | "B7"B3-B2 e | "Em"B>AG "Am"F/E/EB/A/ | "Em"GG"B7"F "Em"E3 |]

